X:48
T:Deep River Blues
C:Ben Winship & David Thompson - Fishing Music a collection of acoustic folk, blues & swing
N: - mandolin: Ben Winship - TablEdited by Philippe Colleu
L:1/8
Q:1/4=160
M:4/4
K:C
"(80 bpm)"zA ^G2 A2 _B2 | (3"E7"BzG (3^GzB z4 | (3"E°"_Bz^F (3GzB (3zzz (3zzB | 
(3"E7"Bze (3_BAG (3AzG (3EzB, | "A7"(3^CzE (3Az^F (3GzF (3EzC | "E"[E2B,2] E2 [E2B,2] (3^CzE | 
z3G (3^GzB G2 | "B7"[B/^F/][B/F/][B/F/][B/F/] [B/F/][B/F/][B/F/][B/F/] [B/F/][B/F/][B/F/][B/F/] [B2F2] | 
[^d/B/][d/B/][d/B/][d/B/] [d/B/][d/B/][d/B/][d/B/] [e2d2B2] A2 | "E7"B2 (3dzB (3ezd (3Bz | 
"E°"_B2 (3^czB (3ezc (3BzA | (3"E7"Bze (3dzA (3ezd (3^GzA | (3"A7"Gzz (3^czG (3ezc (3GzA | 
(3"E"^F^GB (3^cze (3gz^g (3ezc | (3"B7"Bz^G (3^czB (3=G^FE (3^Czz | (3"E"EzB, (3zzE _B,2 (3A,zG, | 
(3^G,zE (3=G,z^G, _F4 | 


